X:1
T:[ID 2-64]
T:[ID 2-64]
T:Bezeichnung standardisiert: Menuett Men\"uet 4.
T:Urheber unbekannt Datum in der hier transkribierten schriftlichen Quelle: 1767
C:Urheber unbekannt
C:Datum in der hier transkribierten schriftlichen Quelle: 1767
L:1/8
M:3/4
K:G
V:1 treble 
V:1
 B3 cAF | B3 cAF | Bd f2 g2 | gBcA{B} B2 |"^O)" B3 AGD | cAFD B,2 |"^O)" B3 AGD | cAFD B,2 | %8
 (3edc BAGD | B,6 :: e3 dcd | (3efe (3ded c2 | f3 ede | (3fgf (3efe d2 |"^O)" B3 AGD | cAFD B,2 | %16
"^O)" B3 AGD | cAFD B,2 | (3edc BAGD | B,6 :| %20

